vectors/godaddy/godaddy.svg

<svg xmlns="http://www.w3.org/2000/svg" xmlns:xlink="http://www.w3.org/1999/xlink" viewBox="0 0 92 82" version="1.1">
    <defs>
        <polygon id="path-1" points="0 0 92 0 92 82 0 82"/>
    </defs>
    <g id="Page-1" stroke="none" stroke-width="1" fill="none" fill-rule="evenodd">
        <g id="Desktop_GoStory_00" transform="translate(-914.000000, -12662.000000)">
            <g id="Press-Kit" transform="translate(0.000000, 12542.000000)">
                <g id="button/text" transform="translate(741.000000, 120.000000)">
                    <g id="logo" transform="translate(173.000000, 0.000000)">
                        <mask id="mask-2" fill="white">
                            <use xlink:href="#path-1"/>
                        </mask>
                        <g id="Clip-2"/>
                        <path d="M82.4347129,40.1803494 C81.2041823,44.8664063 79.2098339,49.4369316 76.5082033,53.7654649 C74.7828871,56.5296375 72.8400057,59.074456 70.7072421,61.3784535 C73.1417898,51.4450744 71.4940642,39.2763923 65.521936,27.8649109 C65.1020117,27.0624343 64.1319356,26.7966335 63.3642187,27.2767143 L44.7658957,38.9102819 C44.0539347,39.3560155 43.8371493,40.2947101 44.2820274,41.0078057 L47.0090016,45.3761506 C47.4538797,46.0892462 48.3919838,46.3058681 49.1043347,45.8605248 L61.1581534,38.3201338 C61.5620919,39.478963 61.9243108,40.6455984 62.2327232,41.8204303 C63.3926815,46.2356123 63.8246929,50.5442399 63.5166703,54.6268782 C62.9439044,62.2269866 59.8531516,68.1487637 54.813279,71.3012942 C52.2964619,72.8758031 49.3721973,73.7095044 46.1941065,73.8002156 C46.1250939,73.7988853 46.0549115,73.8012271 45.9858989,73.8002156 C45.9266338,73.8002156 45.8665889,73.7988853 45.8073238,73.8002156 C42.6288431,73.7098947 39.7041886,72.8758031 37.1865917,71.3009039 C32.147109,68.1487637 29.0559664,62.2269866 28.4832004,54.6268782 C28.1755678,50.5442399 28.6075791,46.2356123 29.7671475,41.8204303 C30.998068,37.1343733 32.9916366,32.563848 35.694047,28.2353147 C38.3956777,23.9067813 41.6252355,20.109069 45.293433,16.9475613 C48.749134,13.9687185 52.4282488,11.6912621 56.2286231,10.1784221 C63.3037839,7.36194809 69.9753961,7.54734514 75.0152687,10.6998757 C80.0547514,13.852016 83.145894,19.7737931 83.71866,27.3739014 C84.0266825,31.4565397 83.5946712,35.7651673 82.4347129,40.1803494 M15.4920574,53.7654649 C12.7900369,49.4369316 10.7960783,44.8664063 9.56515784,40.1803494 C8.40558944,35.7651673 7.97357808,31.4565397 8.28121072,27.3739014 C8.85436658,19.7737931 11.9451193,13.852016 16.9849919,10.6998757 C22.0244746,7.54734514 28.6964768,7.36194809 35.7712476,10.1784221 C36.8364598,10.6022983 37.8903647,11.0952593 38.9341322,11.6397412 C35.1630006,15.0604144 31.6983319,19.171155 28.751063,23.8927302 C20.9463957,36.3955173 18.5726727,50.2831228 21.2937984,61.3796244 C19.1610347,59.0756269 17.2177634,56.5300278 15.4920574,53.7654649 M79.3533178,3.74963283 C69.7917523,-2.23147133 57.2053275,-0.8099638 45.9968161,6.2554204 C34.7902543,-0.807621943 22.2069487,-2.2303004 12.6465529,3.75002314 C-2.45824857,13.1982474 -4.29273724,37.5356116 8.54907336,58.1084398 C18.0182321,73.2774317 32.8216394,82.1632198 46.0007152,81.9977285 C59.1790111,82.1624392 73.9820285,73.2770414 83.4507974,58.1084398 C96.292608,37.5356116 94.4585092,13.1982474 79.3533178,3.74963283" id="Fill-1" fill="#1BDBDB" mask="url(#mask-2)"/>
                    </g>
                </g>
            </g>
        </g>
    </g>
</svg>

<svg xmlns="http://www.w3.org/2000/svg" xmlns:xlink="http://www.w3.org/1999/xlink"><defs><path id="a" d="M0 0h92v82H0z"/></defs><g fill="none" fill-rule="evenodd"><mask id="b" fill="#fff"><use xlink:href="#a"/></mask><path d="M82.435 40.18c-1.23 4.686-3.225 9.257-5.927 13.585a50.75 50.75 0 01-5.8 7.613c2.434-9.933.786-22.102-5.186-33.513a1.504 1.504 0 00-2.158-.588L44.766 38.91a1.524 1.524 0 00-.484 2.098l2.727 4.368a1.52 1.52 0 002.095.485l12.054-7.54a46.561 46.561 0 011.075 3.5c1.16 4.415 1.592 8.723 1.284 12.806-.573 7.6-3.664 13.522-8.704 16.674-2.517 1.575-5.44 2.409-8.619 2.5-.069-.002-.14 0-.208 0-.06 0-.12-.002-.179 0-3.178-.091-6.103-.925-8.62-2.5-5.04-3.152-8.131-9.074-8.704-16.674-.307-4.083.125-8.391 1.284-12.807 1.231-4.686 3.225-9.256 5.927-13.585 2.702-4.328 5.931-8.126 9.6-11.287 3.455-2.98 7.134-5.257 10.935-6.77 7.075-2.816 13.746-2.63 18.786.522 5.04 3.152 8.13 9.074 8.704 16.674.308 4.083-.124 8.391-1.284 12.806M15.492 53.765c-2.702-4.328-4.696-8.899-5.927-13.585-1.16-4.415-1.591-8.723-1.284-12.806.573-7.6 3.664-13.522 8.704-16.674 5.04-3.153 11.711-3.338 18.786-.522 1.065.424 2.12.917 3.163 1.462-3.771 3.42-7.236 7.531-10.183 12.253-7.805 12.503-10.178 26.39-7.457 37.487a50.771 50.771 0 01-5.802-7.615M79.353 3.75C69.792-2.231 57.205-.81 45.997 6.255 34.79-.808 22.207-2.23 12.647 3.75c-15.105 9.448-16.94 33.786-4.098 54.358 9.47 15.17 24.273 24.055 37.452 23.89 13.178.164 27.981-8.721 37.45-23.89 12.842-20.572 11.008-44.91-4.098-54.358" fill="#1BDBDB" mask="url(#b)"/></g></svg>
